X:1
T:Title
%%score { ( 1 4 ) | ( 2 3 ) }
L:1/8
M:3/4
K:G
V:1 treble nm="Grand Piano"
V:4 treble 
V:2 bass 
V:3 bass 
V:1
 z2 z2[Q:1/4=100] [B,G]>[CA] | [DB]3- [DB]/[Ec]/ [DB]>[B,G] | [DB]4 [^DA]2 | [EG]4 EG | %4
 [B,G]4 G>A | B3- B/c/ B>G | [Fd]4 GB | [^CB]4 EB | A4 A>[GB] | [Fc]3- [Fc]/[Fc]/ [FB]>[FA] | %10
 d4 B>A | G3- G/G/ [^CF]>[CG] | A4 D>D | [B,G]3- [B,G]/A/ B>c |[M:7/8] d- d3 [Ge]3 | %15
[M:3/4] [GB]4 [CFB]2 |[M:2/4] [B,DG]4 |] %17
V:2
 z2 z2 [G,,G,]>[G,,G,] | [G,,G,]3- [G,,G,]/[G,,G,]/ [G,,G,]>[G,,G,] | [G,,G,]4 [B,,F,]2 | %3
 z2 z2 .G,2 | [G,,D,]4 [G,B,]>[G,C] | [G,D]3- [G,D]/[G,E]/ [G,D]>[G,B,] | [D,A,]4 [E,G,E]2 | %7
 z2 z A A,,2 | [D,F,D]4 [D,F,D]>[D,G,] | [D,A,]3- [D,A,]/[D,A,]/ [D,D]>[D,C] | %10
 [G,B,G]4 [F,B,^D]>[F,B,D] | [E,B,E]3- [E,B,E]/[E,B,E]/ [A,,A,]>[A,,G,] | %12
 [D,F,C]4 [D,F,C]>[D,A,C] | [G,,G,]3- [G,,G,]/[D,F,D]/ [G,D]>[G,A,D] | %14
[M:7/8] [G,B,D]- [G,B,D]3 [C,C]3 |[M:3/4] G,>B, D2 z z/ A/ |[M:2/4] G,,4 |] %17
V:3
 x6 | x6 | x6 | [C,E,]4 [C,C]-[C,E,C] | x6 | x6 | x6 | [A,,E,G,]4 z2 | x6 | x6 | x6 | x6 | x6 | %13
 x6 |[M:7/8] x7 |[M:3/4] D,4 D,2 |[M:2/4] x4 |] %17
V:4
 x6 | x6 | x6 | x6 | x6 | x6 | x6 | z2 z2 [G,^C]2 | x6 | x6 | x6 | x6 | x6 | x6 |[M:7/8] x7 | %15
[M:3/4] x6 |[M:2/4] x4 |] %17

